X:1
T:Joy to the world, the Lord is come
T:Joy to the world, the Lord is come - Exultation (George Gay)
C:George Gay
Z:p22, Sacred Music,
Z:2nd ed., London: (1828)
%%score [ 1 ( 2 3 ) 4 5 ]
L:1/8
M:2/2
K:G
V:1 treble nm="SOPRANO" snm="S."
V:2 treble nm="ALTO" snm="A."
V:3 treble 
V:4 treble-8 transpose=-12 nm="TENOR" snm="T."
V:5 bass nm="BASS" snm="B."
V:1
 z4 d4 | d3 c B2 G2 | A2 A2 B2 c2 | B2 A2 G2 F2 | G4 (dedc) | B2 A2 B4 |"^[Inst]" BcBA G2 F2 | %7
w: No|more let sins and|sor- row grow, Nor|thorns in- fest the|ground. No _ _ _|more let sins||
w: Joy|to the world, the|Lord is come; Let|earth re- ceive her|king. Joy _ _ _|to the world,||
w: Joy|to the earth, the|Sa- viour reigns; Let|men their songs em-|ploy. Joy _ _ _|to the earth,||
 G4 z2 d2 | d6 d2 | d4 z4 | B4 A2 G2 | A4 ^F4 | G8 | z4 B4 | G2 c2 B2 A2 | G2 d2 d2 z2 | z8 | %17
w: * and|sor- row|grow,|Nor thorns in-|fest the|ground:|He|comes to make his|bless- ings flow,||
w: * the|Lord is|come;|Let earth re-|ceive her|king.|Let|ev- ’ry heart pre-|pare him room,||
w: * the|Sa- viour|reigns;|Let men their|songs em-|ploy,|While|fields and floods, rocks,|hills and plains,||
 d4 B2 A2 | G2 F2 G2 B2 | A2 B2 e2 d2 | c2 B2 (A2 GF | G2 A2 BcAG | d6) c2 | B4 A4 | G4 F4 | G8 |] %26
w: He comes to|make his bless- ings|flow Far as the|curse is found, _ _|_ _ _ _ _ _|* Far|as the|curse is|found.|
w: Let ev- ’ry|heart pre- pare him|room, And heav’n and|na- ture sing, _ _|_ _ _ _ _ _|* And|heav’n and|na- ture|sing.|
w: While fields and|floods, rocks, hills and|plains Re- peat the|sound- ing joy, _ _|_ _ _ _ _ _|* Re-|peat the|sound- ing|joy.|
V:2
 z4 G4 | D3 D D2 G2 | G2 F2 G2 F2 | G2 E2 D2 C2 | B,4 z4 | (GAGF)"^[Inst]" G4- |"^[Inst]" G4 z4 | %7
w: No|more let sins and|sor- row grow, Nor|thorns in- fest the|ground.|No _ _ _ _|sins|
w: Joy|to the world, the|Lord is come; Let|earth re- ceive her|king.|Joy _ _ _ _|world,|
w: Joy|to the earth, the|Sa- viour reigns; Let|men their songs em-|ploy.|Joy _ _ _ _|_|
 z4 z2 G2 | F6 F2 | F4 z4 | D4 F2 D2 | E4 D4 | D8 | z4 G4 | D2 F2 G2 D2 | D2 G2 F2 z2 | z8 | %17
w: and|sor- row|grow,|Nor thorns in-|fest the|ground:|He|comes to make his|bless- ings flow,||
w: the|Lord is|come;|Let earth re-|ceive her|king.|Let|ev- ’ry heart pre-|pare him room,||
w: the|Sa- viour|reigns;|Let men their|songs em-|ploy,|While|fields and floods, rocks,|hills and plains,||
 (F2 GA) G2 F2 | G2 D2 E2 G2 | F2 G2 C2 B,2 | A,2 G,2 D4- | D8- | D6 A2 | G4 E4 | D4 D4 | D8 |] %26
w: He _ _ comes to|make his bless- ings|flow Far as the|curse is found,|_|* Far|as the|curse is|found.|
w: Let _ _ ev- ’ry|heart pre- pare him|room, And heav’n and|na- ture sing,|_|* And|heav’n and|na- ture|sing.|
w: While _ _ fields and|floods, rocks, hills and|plains Re- peat the|sound- ing joy,|_|* Re-|peat the|sound- ing|joy.|
V:3
 x8 | x8 | x8 | x8 | x8 | x4 E2 F2 | D4 B,4- | B,4 z4 | x8 | x8 | x8 | x8 | x8 | x8 | x8 | x8 | %16
w: |||||more let|||||||||||
w: |||||to the|||||||||||
w: |||||to the|earth, *||||||||||
 x8 | x8 | x8 | x8 | x8 | x8 | x8 | x8 | x8 | x8 |] %26
w: ||||||||||
w: ||||||||||
w: ||||||||||
V:4
 z4 B4 | A3 A G2 d2 | e2 d2 d2 z2 | z8 | z8 | z4 (dedc) | B2 A2 B4 | z4 z2 B2 | A6 A2 | A4 z4 | %10
w: No|more let sins and|sor- row grow,|||No _ _ _|more let sins|and|sor- row|grow,|
w: Joy|to the world, the|Lord is come;|||Joy _ _ _|to the world,|the|Lord is|come;|
w: Joy|to the earth, the|Sa- viour reigns;|||Joy _ _ _|to the earth,|the|Sa- viour|reigns;|
 G4 A2 B2 | c4 A4 | B8 | z4 d4 | B2 A2 G2 F2 | G2 B2 A2 B2 | e2 d2 c2 B2 | (A2 GF G2 A2 | %18
w: Nor thorns in-|fest the|ground:|He|comes to make his|bless- ings flow, Far|as the curse is|found, _ _ _ _|
w: Let earth re-|ceive her|king.|Let|ev- ’ry heart pre-|pare him room, And|heav’n and na- ture|sing, _ _ _ _|
w: Let men their|songs em-|ploy,|While|fields and floods, rocks,|hills and plains, Re-|peat the sound- ing|joy, _ _ _ _|
 BcAG d4- | d2) z2 z4 | z4 (F2 GA) | B2 A2 G2 F2 | G2 B2 A2 d2 | d6 c2 | B4 A4 | B8 |] %26
w: _ _ _ _ _||He _ _|comes to make his|bless- ings flow Far|as the|curse is|found.|
w: _ _ _ _ _||Let _ _|ev- ’ry heart pre-|pare him room, And|heav’n and|na- ture|sing.|
w: _ _ _ _ _||While _ _|fields and floods, rocks,|hills and plains Re-|peat the|sound- ing|joy.|
V:5
 z4 G,4 | F,3 F, G,2 B,,2 | C,2 D,2 G,2 A,2 | B,2 C2 D2 D,2 | G,4 z4 | z8 | (G,A,G,F,) E,2 D,2 | %7
w: No|more let sins and|sor- row grow, Nor|thorns in- fest the|ground.||No _ _ _ more let|
w: Joy|to the world, the|Lord is come; Let|earth re- ceive her|king.||Joy _ _ _ to the|
w: Joy|to the earth, the|Sa- viour reigns; Let|men their songs em-|ploy.||Joy _ _ _ to the|
 E,4 z2 D,2 | D,6 D,2 | D,4 z4 | G,4 D,2 G,2 | C,4 D,4 | G,,8 | z4 G,4 | G,2 D,2 E,2 C,2 | %15
w: sins and|sor- row|grow,|Nor thorns in-|fest the|ground:|He|comes to make his|
w: world, the|Lord is|come;|Let earth re-|ceive her|king.|Let|ev- ’ry heart pre-|
w: earth, the|Sa- viour|reigns;|Let men their|songs em-|ploy,|While|fields and floods, rocks,|
 B,,2 G,,2 D,2 G,2 | C2 B,2 A,2 G,2 | D,8- | D,8- | %19
w: bless- ings flow, Far|as the curse is|found,|_|
w: pare him room, And|heav’n and na- ture|sing,|_|
w: hills and plains, Re-|peat the sound- ing|joy,|_|
"^Notes: The order of parts in the source is Alto - Tenor - Soprano - Bass, with the Alto and Tenor parts notated in G clefs.The Soprano and Bass parts are bracketed together in the source, with small notes printed between to fill in the harmony ofa keyboard accompaniment which largely doubles the inner voices: this accompaniment has been omitted from the presentedition, with the exception of some notes not doubled by the voices, which are given here as small notes for instruments.Fragments of the first verse only of the text are given in the source: the rest of this text has been underlaid editorially." D,4 z4 | %20
w: |
w: |
w: |
 z4 D,4 | G,2 F,2 G,2 D,2 | B,,2 G,,2 D,2 F,2 | G,4 C,4 | D,4 D,4 | G,,8 |] %26
w: He|comes to make his|bless- ings flow Far|as the|curse is|found.|
w: Let|ev- ’ry heart pre-|pare him room, And|heav’n and|na- ture|sing.|
w: While|fields and floods, rocks,|hills and plains Re-|peat the|sound- ing|joy.|

